X:1
T:Herzliebster Jesu, 11.11.11.5
T:Johann Crüger, 1640
T:Herzliebster Jesu, 11.11.11.5
T:Public Domain
C:Johann Cr&#252;ger, 1640
Z:Public Domain
%%score ( 1 2 ) ( 3 4 )
L:1/8
M:4/4
K:Bb
V:1 treble 
V:2 treble 
V:3 bass 
V:4 bass 
V:1
 [DG]4 [EG]2 [EG]2 | [CF]4 D4 | [DG]2 [DA]2 [GB]2 [FB]2 | [Ec]4 [DA]4 | [DA]4 [DB]2 [Fc]2 | %5
 [Fd]4 [GB]4 | [Ge]2 [Ge]2 [Fd]2 [Fd]2 x | [Fc]4 [DB]4 | [GB]4 [FA]2 [EG]2 | [DF]4 [B,D]4 | %10
 [DF]2 [CF]2 [DG]2 [DF]2 | [CE]4 [B,D]4 | [Dd]4 [Ec]2 [DB]2 | D3 C [B,G]4 |] %14
V:2
 x8 | x4 D4 | x8 | x8 | x8 | x8 | x9 | x8 | x8 | x8 | x8 | x8 | x8 | A4 x4 |] %14
V:3
 [G,B,]4 [E,B,]2 [C,C]2 | [F,A,]4 [B,,F,]4 | [G,B,]2 [F,A,]2 [E,G,]2 [D,B,]2 | [C,G,]4 [D,^F,]4 | %4
 [D,^F,]4 G,2 [=F,A,]2 | [B,,B,]4 [E,G,]4 | [C,C]2 (G,A,) B,2 z E, x | (B,2 A,2) [B,,B,]4 | %8
 [G,,D]4 [D,D]2 [E,B,]2 | [B,,B,]4 [B,,F,]4 | [B,,F,]2 [A,,A,]2 [G,,B,]2 [B,,B,]2 | %11
 [C,G,]4 [G,,G,]4 | (F,2 B,2) [C,G,]2 [G,,G,]2 | G,2 ^F,2 [G,,G,]4 |] %14
V:4
 x8 | x8 | x8 | x8 | x4 G,2 x2 | x8 | x2 C,2 D,3 B,2 | F,4 x4 | x8 | x8 | x8 | x8 | B,,4 x4 | %13
 D,4 x4 |] %14

